icons/op-relation-new-child-24.svg

<svg width="24" height="24" viewBox="0 0 24 24" fill="none" xmlns="http://www.w3.org/2000/svg">
<path d="M4.91585 11.7321C4.6555 11.4626 4.23339 11.4626 3.97304 11.7321C3.7127 12.0016 3.7127 12.4384 3.97304 12.708L4.83497 13.6002H3.55556C3.43283 13.6002 3.33333 13.4972 3.33333 13.3702L3.33333 2.66819C3.33333 2.29916 3.03486 2 2.66667 2C2.29848 2 2 2.29916 2 2.66819V13.3702C2 14.2595 2.69645 14.9804 3.55556 14.9804L4.83497 14.9804L3.97304 15.8726C3.7127 16.1421 3.71269 16.5791 3.97304 16.8486C4.23339 17.1181 4.6555 17.1181 4.91585 16.8486L6.91585 14.7783C7.1762 14.5088 7.1762 14.0718 6.91585 13.8023L4.91585 11.7321Z" fill="#636C76"/>
<path fill-rule="evenodd" clip-rule="evenodd" d="M14.1262 6.64966C14.6676 6.33641 15.3346 6.33641 15.876 6.64966L21.126 9.41847C21.6675 9.73178 22.0011 10.3108 22.0011 10.9375V17.4772C22.0011 18.1039 21.6675 18.6829 21.126 18.9963L15.876 21.7651C15.3346 22.0783 14.6676 22.0783 14.1262 21.7651L8.87619 18.9963C8.33468 18.6829 8.0011 18.1039 8.0011 17.4772V10.9375C8.0011 10.3108 8.33469 9.73178 8.87619 9.41847L14.1262 6.64966ZM15.1261 7.95171C15.0487 7.90696 14.9535 7.90696 14.8761 7.95171L10.251 10.359L15.0011 12.8386L19.7512 10.359L15.1261 7.95171ZM9.5011 17.4772V11.661L14.2511 14.1406V20.1014L9.62611 17.6942C9.54875 17.6494 9.5011 17.5667 9.5011 17.4772ZM20.3761 17.6942L15.7511 20.1014V14.1406L20.5011 11.6611V17.4772C20.5011 17.5667 20.4534 17.6494 20.3761 17.6942Z" fill="#636C76"/>
</svg>

<svg xmlns="http://www.w3.org/2000/svg" width="24" height="24" viewBox="0 0 24 24"><path d="M4.916 11.732a.652.652 0 0 0-.943 0 .708.708 0 0 0 0 .976l.862.892H3.556a.227.227 0 0 1-.223-.23V2.668a.667.667 0 1 0-1.333 0V13.37c0 .889.696 1.61 1.556 1.61h1.279l-.862.893a.708.708 0 0 0 0 .976c.26.269.682.269.943 0l2-2.071a.708.708 0 0 0 0-.976l-2-2.07Zm9.21-5.082a1.743 1.743 0 0 1 1.75 0l5.25 2.768c.541.314.875.893.875 1.52v6.539c0 .627-.334 1.206-.875 1.519l-5.25 2.769a1.748 1.748 0 0 1-1.75 0l-5.25-2.769a1.755 1.755 0 0 1-.875-1.519v-6.539c0-.627.334-1.206.875-1.52ZM9.501 17.477c0 .09.048.172.125.217l4.625 2.407v-5.96l-4.75-2.48Zm10.875.217a.251.251 0 0 0 .125-.217v-5.816l-4.75 2.48v5.96Zm-5.25-9.742a.248.248 0 0 0-.25 0l-4.625 2.407 4.75 2.48 4.75-2.48Z"/></svg>
